atom/.atom/packages/seti-ui/icons/npm.svg

<?xml version="1.0" encoding="utf-8"?>
<!-- Generator: Adobe Illustrator 18.1.1, SVG Export Plug-In . SVG Version: 6.00 Build 0)  -->
<svg version="1.1" id="Layer_1" xmlns="http://www.w3.org/2000/svg" xmlns:xlink="http://www.w3.org/1999/xlink" x="0px" y="0px"
	 viewBox="0 0 32 32" enable-background="new 0 0 32 32" xml:space="preserve">
<path fill="#CD3F45" d="M4,11.3c0,2.7,0,5.3,0,8c1.9,0,3.8,0,5.9,0c0.2,0,0.5,0,0.9,0c0,0.4,0,0.9,0,1.4c1.8,0,3.5,0,5.3,0
	c0-0.4,0-0.9,0-1.3c3.9,0,7.9,0,11.9,0c0-0.1,0-0.2,0-0.3c0-2.5,0-4.9,0-7.5c0-0.1,0-0.2,0-0.3C19.9,11.3,11.9,11.3,4,11.3z
	 M10.6,18c-0.4,0-0.9,0-1.3,0c0-1.3,0-2.7,0-3.9c-0.4,0-0.9,0-1.3,0c0,1.3,0,2.6,0,3.9c-0.9,0-1.7,0-2.7,0c0-1.7,0-3.5,0-5.3
	c1.8,0,3.5,0,5.3,0C10.6,14.4,10.6,16.2,10.6,18z M17.2,18c-0.9,0-1.7,0-2.7,0c0,0.4,0,0.9,0,1.4c-1,0-1.8,0-2.7,0
	c0-2.2,0-4.4,0-6.6c1.7,0,3.5,0,5.3,0C17.2,14.4,17.2,16.2,17.2,18z M26.6,18c-0.4,0-0.9,0-1.3,0c0-1.3,0-2.6,0-3.9
	c-0.4,0-0.9,0-1.3,0c0,1.3,0,2.7,0,3.9c-0.4,0-0.9,0-1.4,0c0-1.3,0-2.7,0-3.9c-0.4,0-0.9,0-1.3,0c0,1.3,0,2.7,0,3.9
	c-0.9,0-1.7,0-2.7,0c0-1.8,0-3.5,0-5.3c2.7,0,5.3,0,8,0C26.6,14.5,26.6,16.2,26.6,18L26.6,18z M15.9,14.1c-0.4,0-0.9,0-1.3,0
	c0,0.9,0,1.7,0,2.6c0.4,0,0.9,0,1.3,0C15.9,15.8,15.9,14.9,15.9,14.1z"/>
</svg>

<svg xmlns="http://www.w3.org/2000/svg" viewBox="0 0 32 32"><path fill="#CD3F45" d="M4 11.3v8H10.8v1.4h5.3v-1.3H28v-.3-7.5-.3H4zm6.6 6.7H9.3v-3.9H8V18H5.3v-5.3h5.3V18zm6.6 0h-2.7v1.4h-2.7v-6.6h5.3c.1 1.6.1 3.4.1 5.2zm9.4 0h-1.3v-3.9H24V18h-1.4v-3.9h-1.3V18h-2.7v-5.3h8V18zm-10.7-3.9h-1.3v2.6h1.3v-2.6z"/></svg>
